svg/24/film.svg

<svg width="24" height="24" viewBox="0 0 24 24" fill="currentColor" xmlns="http://www.w3.org/2000/svg"><path fill-rule="evenodd" clip-rule="evenodd" d="M3.63777 6.15268C2.57083 6.43857 1.93767 7.53524 2.22355 8.60217L2.99998 11.4998L2.99998 19C2.99998 20.1046 3.89541 21 4.99998 21H19C20.1046 21 21 20.1046 21 19V12C21 10.8955 20.1046 10 19 10H8.59778L18.4548 7.35885C19.5218 7.07296 20.1549 5.97629 19.869 4.90936L19.6102 3.94343C19.3243 2.8765 18.2277 2.24333 17.1607 2.52922L3.63777 6.15268ZM17.549 3.9781L16.8989 4.15228L15.6227 6.56479L18.0666 5.90996C18.3333 5.83849 18.4916 5.56432 18.4201 5.29758L18.1613 4.33166C18.0899 4.06493 17.8157 3.90663 17.549 3.9781ZM12.5523 5.31696L14.9217 4.68207L13.6455 7.09458L11.276 7.72948L12.5523 5.31696ZM10.5751 5.84675L9.29883 8.25927L6.92938 8.89416L8.20561 6.48165L10.5751 5.84675ZM6.22839 7.01144L4.95217 9.42396L4.06067 9.66283L3.67244 8.21394C3.60097 7.94721 3.75926 7.67304 4.02599 7.60157L6.22839 7.01144ZM4.49998 11.5H19C19.2761 11.5 19.5 11.7239 19.5 12V19C19.5 19.2762 19.2761 19.5 19 19.5H4.99998C4.72384 19.5 4.49998 19.2762 4.49998 19V11.5Z"/></svg>

<svg xmlns="http://www.w3.org/2000/svg" width="24" height="24" fill="currentColor" viewBox="0 0 24 24">
  <path fill-rule="evenodd" d="M3.638 6.153a2 2 0 0 0-1.414 2.45L3 11.5V19a2 2 0 0 0 2 2h14a2 2 0 0 0 2-2v-7a2 2 0 0 0-2-2H8.598l9.857-2.641a2 2 0 0 0 1.414-2.45l-.259-.965a2 2 0 0 0-2.45-1.415L3.639 6.153Zm13.911-2.175-.65.174-1.276 2.413 2.444-.655a.5.5 0 0 0 .353-.612l-.259-.966a.5.5 0 0 0-.612-.354Zm-4.997 1.34 2.37-.636-1.276 2.413-2.37.635 1.276-2.413Zm-1.977.529L9.3 8.259l-2.37.635 1.277-2.412 2.37-.635ZM6.23 7.012 4.952 9.424l-.891.239-.388-1.449a.5.5 0 0 1 .353-.612l2.203-.59ZM4.5 11.5H19a.5.5 0 0 1 .5.5v7a.5.5 0 0 1-.5.5H5a.5.5 0 0 1-.5-.5v-7.5Z" clip-rule="evenodd"/>
</svg>
